packages/web-icons/svgs/logo_paper_bold.svg

<svg viewBox="0 0 192 48" xmlns="http://www.w3.org/2000/svg" class="ridi_icon"><path d="M50.3.1L31 47.3l-.3.6h5.7l4.7-11.5h21.7l-1.9-4.6H42.8L53.1 6.1l16.6 41.5.1.3h5.7L56 .1zM33.5 14.3c0-8.4-6-14.2-14.6-14.2H.8V48h5V4.8h12.7c5.9 0 9.8 3.8 9.8 9.5s-3.9 9.5-9.8 9.5H8.7l.2 4.7h10c8.5-.1 14.6-5.9 14.6-14.2zm85.4 33.6h30.8v-4.6h-25.8V25.7h25.2V21h-25.2V4.6h25.8V.1h-30.8zM98.1.1H80V48h5V4.8h12.7c5.9 0 9.8 3.8 9.8 9.5s-3.9 9.5-9.8 9.5h-9.8v4.7H98c8.6 0 14.6-5.8 14.6-14.2.1-8.4-6-14.2-14.5-14.2zm79.4 28.1c6.5-.6 12.6-5.1 12.6-14 0-4.2-1.5-7.8-4.2-10.5-2.7-2.3-6.4-3.7-10.5-3.7h-18v47.9h5V4.6H175c5.9 0 9.9 3.8 9.9 9.5s-4 9.6-9.9 9.6h-10.5l.2 4.7h7.4l13.1 19.3h6l-13.7-19.5z"/></svg>

<?xml version="1.0" encoding="UTF-8"?>
<svg width="192px" height="48px" viewBox="0 0 192 48" version="1.1" xmlns="http://www.w3.org/2000/svg">
  <!-- Generator: Sketch 41.2 (35397) - http://www.bohemiancoding.com/sketch -->
  <title>logo_paper_bold</title>
  <desc>Created with Sketch.</desc>
  <defs></defs>
  <g id="Page-1" stroke="none" stroke-width="1" fill="none" fill-rule="evenodd">
    <g id="logo_paper_bold" fill="#231F20">
      <g id="Layer_1">
        <polygon id="Shape" points="50.3 0.1 31 47.3 30.7 47.9 36.4 47.9 41.1 36.4 62.8 36.4 60.9 31.8 42.8 31.8 53.1 6.1 69.7 47.6 69.8 47.9 75.5 47.9 56 0.1"></polygon>
        <path d="M33.5,14.3 C33.5,5.9 27.5,0.1 18.9,0.1 L0.8,0.1 L0.8,48 L5.8,48 L5.8,4.8 L18.5,4.8 C24.4,4.8 28.3,8.6 28.3,14.3 C28.3,20 24.4,23.8 18.5,23.8 L8.7,23.8 L8.9,28.5 L18.9,28.5 C27.4,28.4 33.5,22.6 33.5,14.3 Z" id="Shape"></path>
        <polygon id="Shape" points="118.9 47.9 149.7 47.9 149.7 43.3 123.9 43.3 123.9 25.7 149.1 25.7 149.1 21 123.9 21 123.9 4.6 149.7 4.6 149.7 0.1 118.9 0.1"></polygon>
        <path d="M98.1,0.1 L80,0.1 L80,48 L85,48 L85,4.8 L97.7,4.8 C103.6,4.8 107.5,8.6 107.5,14.3 C107.5,20 103.6,23.8 97.7,23.8 L87.9,23.8 L87.9,28.5 L98,28.5 C106.6,28.5 112.6,22.7 112.6,14.3 C112.7,5.9 106.6,0.1 98.1,0.1 Z" id="Shape"></path>
        <path d="M177.5,28.2 C184,27.6 190.1,23.1 190.1,14.2 C190.1,10 188.6,6.4 185.9,3.7 C183.2,1.4 179.5,0 175.4,0 L157.4,0 L157.4,47.9 L162.4,47.9 L162.4,4.6 L175,4.6 C180.9,4.6 184.9,8.4 184.9,14.1 C184.9,19.8 180.9,23.7 175,23.7 L164.5,23.7 L164.7,28.4 L172.1,28.4 L185.2,47.7 L191.2,47.7 L177.5,28.2 Z" id="Shape"></path>
      </g>
    </g>
  </g>
</svg>
